X:62
T:Eileen Curran
M:4/4
R:Reel
D:Kevin Burke: If the Cap Fits
K:Gdor
GA | BA GF DG GB | AF cF dF cF | BA GF DG GA | B3c dg ga |
(3bag (3agf gd de | fd cB AF FA | BA GF DF GA | Bd cA BG G2 :||
|: g2 {a}gf gb ag | f2 {g}fe fg af | dg {a}gf ~g2 ga | (3bag (3agf dg {a
}ga |
(3bag (3agf gd de | fd cB AF FA | BA GF DF GA | Bd cA BGG2 ||
